X: 26
T: The Seven Step
R: barndance
M: 4/4
L: 1/8
K: Gmaj
G2 G2 G2 G2 | G>AB>G E2 D2 | B2 B2 B2 B2 | B>cd>B A2 G2 ||
B>cd>B A2 G2 | G>AB>G E2 ^D2 | D>EG>A B>dd>B | A2 G2 G4 |
B2 d>B A2 G2 | G2 BG E2 ^D2 | D2 E>G B2 d>B | A2 G2 G4 |]


Tune 1307	Setting 26733

